symbols/web/unfold_less/materialsymbolsrounded/unfold_less_wght100gradN25_48px.svg

<svg xmlns="http://www.w3.org/2000/svg" height="48" width="48"><path d="M24 17.25q-.25 0-.5-.1t-.45-.3l-5.85-5.9q-.15-.15-.15-.375t.2-.425q.15-.15.375-.15t.375.15l6 6 6-6q.2-.15.425-.15.225 0 .425.15.15.2.15.425 0 .225-.15.375l-5.9 5.9q-.2.2-.425.3-.225.1-.525.1ZM17.25 37.8q-.2-.2-.2-.425 0-.225.15-.375l5.85-5.85q.2-.2.45-.35.25-.15.5-.15.35 0 .575.15.225.15.375.35L30.8 37q.2.15.2.375t-.15.425q-.2.15-.425.15-.225 0-.375-.15L24 31.75l-6 6.05q-.15.15-.375.15t-.375-.15Z"/></svg>

<svg xmlns="http://www.w3.org/2000/svg" height="48" width="48"><path d="M24 17.25Q23.75 17.25 23.5 17.15Q23.25 17.05 23.05 16.85L17.2 10.95Q17.05 10.8 17.05 10.575Q17.05 10.35 17.25 10.15Q17.4 10 17.625 10Q17.85 10 18 10.15L24 16.15L30 10.15Q30.2 10 30.425 10Q30.65 10 30.85 10.15Q31 10.35 31 10.575Q31 10.8 30.85 10.95L24.95 16.85Q24.75 17.05 24.525 17.15Q24.3 17.25 24 17.25ZM17.25 37.8Q17.05 37.6 17.05 37.375Q17.05 37.15 17.2 37L23.05 31.15Q23.25 30.95 23.5 30.8Q23.75 30.65 24 30.65Q24.35 30.65 24.575 30.8Q24.8 30.95 24.95 31.15L30.8 37Q31 37.15 31 37.375Q31 37.6 30.85 37.8Q30.65 37.95 30.425 37.95Q30.2 37.95 30.05 37.8L24 31.75L18 37.8Q17.85 37.95 17.625 37.95Q17.4 37.95 17.25 37.8Z"/></svg>
